X:1
T:Hungarian Dance, Csardas
T:Hungarian Dance, Csardas
T:Swan Lake, Piano Arrangement for 3 hands
T:Hinci
C:Hinci
%%score { ( 1 5 ) | ( 2 6 ) | ( 3 4 ) }
L:1/8
Q:1/4=86
M:4/4
K:A
V:1 treble nm="Piano" snm="Pno."
V:5 treble 
V:2 bass 
V:6 bass 
V:3 treble 
V:4 treble 
V:1
"^Moderato assai."!f! [gbe']2 ([ac']/[gb]/[fa]) [gb]2 z2 | [gbe']2 ([ac']/[gb]/[fa]) [gb]2 z2 | %2
 ([gb]/[fa]/).[fa]/.[ac']/ [gb]2 ([gb]/[fa]/).[fa]/.[ac']/ [gb]2 | %3
[Q:1/4=80] [GBg][Q:1/4=73][FAf][GBg][Aca][Q:1/4=86] ([GBg]/[FAf]/[Q:1/4=60][EGe]-) [EGe] !fermata!z || %4
[K:C]!mp![Q:1/4=80]"^Allegro moderato."{/E} [Ece]4 ([Bd]/[Ac]/[^GB]- [GB]2) | %5
 ([Ac]/[^GB]/[^FA]) .[FA].[Ac] [GB]4 |{/E} [Ece]4 ([Bd]/[Ac]/[^GB]- [GB]2) | %7
 ([Ac]/[^GB]/[^FA]) .[FA].[Ac] [GB]4 | %8
 [^FA]([E^G]/[FA]/ [GB])([FA]/[GB]/ [Ac])([GB]/[Ac]/ [Bd])([Ac]/[Bd]/ | %9
 [ce])([Bd]/[ce]/ [fa]).[fa] [ce]4 | %10
 [^FA]([E^G]/[FA]/ [GB])([FA]/[GB]/ [Ac])([GB]/[Ac]/ [Bd])([Ac]/[Bd]/ | %11
 [ce])([Bd]/[ce]/ [fa]).[fa] !>![ce]4 |!f! f4 (3(g/f/e/d- d2) | %13
 ([ce]/[Bd]/[Ac]/[Bd]/) .[ce].[df] [eg]4 |!f! f4 (3(g/f/e/d- d2) | %15
 ([ce]/[Bd]/[ce]/[df]/) .[eg].[ac'] [eg]4 |!mf! [Ad]4 (3(e/d/c/B- B2) | z2 [Afa]2 [EBde]4 | %18
 [Ad]4 (3(e/d/c/B- B2) | z2 [Afa]2 [EBde]4 | z e' ^d'2- d'b =d'2- | d'(c' a2-) a(^^f ^g2) | %22
 z!mp! e ^d2- dB =d2- | d(c A2-) A(^^F ^G2) |{/e} [c'e']4 ([bd']/[ac']/[^gb]- [gb]2) | %25
 ([ac']/[^gb]/[^fa]) .[fa].[ac'] [gb]4 |{/e} [c'e']4 ([bd']/[ac']/[^gb]- [gb]2) | %27
 ([ac']/[^gb]/[^fa]) .[fa].[ac'] [gb]4 | %28
!p!!<(! [^fa]([e^g]/[fa]/ [gb])([fa]/[gb]/ [ac'])([gb]/[ac']/ [bd'])([ac']/[bd']/ | %29
 [c'e'])([bd']/[c'e']/ [f'a']).[f'a']!<)!!mp! [c'e']4 | %30
!p!!<(! [^fa]([e^g]/[fa]/ [gb])([fa]/[gb]/ [ac'])([gb]/[ac']/ [bd'])([ac']/[bd']/ | %31
 [c'e'])([bd']/[c'e']/ [f'a']).[f'a']!<)!!mp! [c'e']4 | %32
!f![Q:1/4=92]"_accel." [c'e']4 ([bd']/[ac']/[^gb]- [gb]2) | %33
[Q:1/4=93] [c'e']4 ([bd']/[ac']/[^gb]- [gb]2) | %34
[Q:1/4=97]"_dim." [c'e']2 ([bd']/[ac']/[^gb]) [c'e']2 ([bd']/[ac']/[gb]) | %35
 [c'e']2 ([bd']/[ac']/[^gb]) [c'e']2 ([bd']/[ac']/[gb]) || %36
[K:A][M:2/4]"^Vivace."[Q:1/4=148]!mp! [ec'e'] z z2 | z4 | z4 | z4 | %40
 ([ce]/[Bd]/[Ac]/[Bd]/) ([ce]/[Bd]/[Ac]/[ce]/) | .[df] (!>![df]2 [eg]) | %42
 ([Bd]/[Ac]/[GB]/[Ac]/) ([Bd]/[Ac]/[GB]/[Bd]/) | .[ce] (!>![ce]2 [df]) | %44
 ([Ac]/[GB]/[FA]- [FA]/)([FA]/[GB]/[Ac]/) | .[Bd].[ce] !>![df]2 | %46
 ([GB]/[FA]/[EG]- [EG]/)([EG]/[FA]/[GB]/) | .[Ac].[Bd] !>![ce]2 | %48
!mp! ([ec'e']/[dbd']/[cac']/[dbd']/) ([ec'e']/[dbd']/[cac']/[ec'e']/) | %49
 .[fd'f'] (!>![fd'f']2 [ge'g']) | ([dbd']/[cac']/[Bgb]/[cac']/) ([dbd']/[cac']/[Bgb]/[dbd']/) | %51
 .[ec'e'] (!>![ec'e']2 [fd'f']) | ([cac']/[Bgb]/[Afa]- [Afa]/)([Afa]/[Bgb]/[cac']/) | %53
 .[dbd'].[ec'e'] !>![fd'f']2 | ([Bgb]/[Afa]/[Geg]- [Geg]/)([Geg]/[Afa]/[Bgb]/) | %55
 .[cac'].[dbd'] !>![ec'e']2 |!ff! [fad'f'][fad'f'] z g' | (3(b'/a'/g'/f') z g' | %58
 (3(a'/g'/f'/e') z e' | (3(f'/e'/d'/c') (3(d'/c'/b/a) | [fad'f'][fad'f'] z g' | %61
 (3(b'/a'/g'/f') z g' | (3(a'/g'/f'/e') z e' | (3(f'/e'/d'/c') (3(d'/c'/b/a) | %64
!mp! ([e'g']/[^d'f']/[c'e']/[d'f']/) ([e'g']/[d'f']/[c'e']/[e'g']/) | [f'a'] [f'a']2 [f'a'] | %66
 ([^d'f']/[c'e']/[^bd']/[c'e']/) ([d'f']/[c'e']/[bd']/[d'f']/) | [e'g'] [e'g']2 [eg] | %68
 ([e'g']/[^d'f']/[c'e']/[d'f']/) ([e'g']/[d'f']/[c'e']/[e'g']/) | [f'a'] [f'a']2 [f'a'] | %70
 ([^d'f']/[c'e']/[^bd']/[c'e']/) ([d'f']/[c'e']/[bd']/[d'f']/) | [e'g'] [e'g']2 [eg] | %72
!ff! [Gceg](c/^B/ c/^d/e/f/) | (3(a/g/f/e) (3(a/g/f/e) | (c/^B/c/^d/) (e/d/e/f/) | %75
 (3(a/g/f/e) (3(a/g/f/e) | (c/^B/c/^d/) (e/d/e/f/) |!>(! (3(a/g/f/e) (3(a/g/f/e) | %78
 (3(a/g/f/!>)!!mf!!<(!e) (3(a/g/f/e) | (3(a/g/f/e) (3(a/g/f/e)!<)! | %80
!ff! ([c'e']/[bd']/[ac']/[bd']/) ([c'e']/[bd']/[ac']/[c'e']/) | .[d'f'] (!>![d'f']2 [e'g']) | %82
 ([bd']/[ac']/[gb]/[ac']/) ([bd']/[ac']/[gb]/[bd']/) | .[c'e'] (!>![c'e']2 [d'f']) | %84
 ([ac']/[gb]/[fa]- [fa]/)([fa]/[gb]/[ac']/) | .[bd'].[c'e'] !>![d'f']2 | %86
 ([gb]/[fa]/[eg]- [eg]/)([eg]/[fa]/[gb]/) | .[ac'].[bd'] !>![c'e']2 | %88
 ([c'e']/[bd']/[ac']/[bd']/) ([c'e']/[bd']/[ac']/[c'e']/) | .[d'f'] (!>![d'f']2 [e'g']) | %90
 ([bd']/[ac']/[gb]/[ac']/) ([bd']/[ac']/[gb]/[bd']/) | .[c'e'] (!>![c'e']2 [d'f']) | %92
 ([ac']/[gb]/[fa]- [fa]/)([fa]/[gb]/[ac']/) | .[bd'].[c'e'] !>![d'f']2 | %94
 ([gb]/[fa]/[eg]- [eg]/)([eg]/[fa]/[gb]/) |!ff! ([ac']/[bd']/[c'e']) ([f'a']/[e'g']/[d'f']) | %96
 ([e'g']/[d'f']/[c'e']) ([d'f']/[c'e']/[bd']) | ([c'e']/[bd']/[ac']) ([f'a']/[e'g']/[d'f']) | %98
 ([e'g']/[d'f']/[c'e']) ([d'f']/[c'e']/[bd']) | ([c'e']/[bd']/[ac']) ([af'a']/[e'g']/[d'f']) | %100
 ([af'a']/[e'g']/[d'f']) ([af'a']/[e'g']/[d'f']) | %101
 ([af'a']/[e'g']/[d'f']) ([af'a']/[e'g']/[d'f']) | %102
 ([af'a']/[e'g']/[d'f']) ([af'a']/[e'g']/[d'f']) | %103
"_ritenuto."[Q:1/4=144] [ac'e'a'][Q:1/4=140][ad'f'a'][Q:1/4=136] [ac'e'a']2 | %104
[Q:1/4=132] [ac'e'a'][Q:1/4=128][ad'f'a'][Q:1/4=124] [ac'e'a']2 | %105
[Q:1/4=88] [ac'e'a']2[Q:1/4=78] [ac'e'a']2 |[Q:1/4=98] [A,A]4- | [A,A]4 |] %108
V:2
 [E,,E,]2 [A,,A,]2 [E,,E,]2 z2 | [E,,E,]2 [A,,A,]2 [E,,E,]2 z2 | %2
 [E,,E,][A,,A,] [E,,E,]2 [E,,E,][A,,A,] [E,,E,]2 | %3
 [E,,E,][A,,A,][E,,E,][A,,A,] [E,,E,]2- [E,,E,] !fermata!z ||[K:C] [A,,E,]4 z4 | [A,,E,]4 E,4 | %6
 [A,,E,]4 [E,E]4 | [A,,E,]4 E,4 | [A,,E,]4 [E,E]4 | [A,,E,]4 [E,A,CE]4 | [A,,E,]4 [E,E]4 | %11
 [A,,E,]4 [E,A,CE]4 | D,4 [G,,G,]4 | [C,,C,]2 z2!mp! .[G,,E,G,]!mf![G,,G,]!f! !>![C,C]2 | %14
 D,4 [G,,G,]4 | [C,,C,]2 z2!mp! .[G,,E,G,]!mf![G,,G,]!f! !>![C,C]2 | z2 B,2 E4 | B,,4 [B,D]4 | %18
 z2 B,2 E4 | B,,4 [B,D]4 |!mp! (E,3 ^F,) (^G,3 E,) | (A,3 C) (^D2 B,E) | (E,,3 ^F,,) (^G,,3 E,,) | %23
 (A,,3 C,) (^D,2 B,,E,) | [A,,C,E,]4 [D,F,]4 | [A,,^D,^F,]4 [E,^G,]4 | [A,,C,E,]4 [D,F,]4 | %27
 [A,,^D,^F,]4 [E,^G,]4 | [CE]>[CE] [B,D]2 [A,E]>[A,E] [F,A,]2 | %29
 A,4- [E,A,]!>(![^F,A,]/[^G,B,]/ [A,C][B,D]!>)! | [CE]>[CE] [B,D]2 [A,E]>[A,E] [F,A,]2 | %31
 A,4- [E,A,][^F,A,]/[^G,B,]/ [A,C][B,D] | [E,A,CE]4 [F,DF]4 | [E,A,CE]4 [F,DF]4 | %34
 [E,A,CE]2 [F,DF]2 [E,A,CE]2 [F,DF]2 | [E,A,CE]2 [F,DF]2 [E,A,CE]2 [F,DF]2 || %36
[K:A][M:2/4] [E,A,CE]!p!.A, .E,.E | .A,,.A, .E,.E | .A,,.A, .E,.E | .A,,.A, .E,.E | .A,,.A, .E,.E | %41
 .A,,.A, .E,.E | .A,,.A, .E,.E | .A,,.A, .E,.E | .A,,.A, .E,.E | .A,,.A, .E,.E | .A,,.A, .E,.E | %47
 .A,,.A, .E,.E | .A,,.A, .E,.E | .A,,.A, .E,.E | .A,,.A, .E,.E | .A,,.A, .E,.E | .A,,.A, .E,.E | %53
 .A,,.A, .E,.E | .A,,.A, .E,.E | .A,,.A, .E,.E | [D,,D,][D,,D,] z2 | z2 [A,,E,A,]2 | %58
 z2 [A,,E,A,]2 | z4 | [D,,D,][D,,D,] z2 | z2 [A,,E,A,]2 | z2 [A,,E,A,]2 | z4 | %64
 .G,,.[G,,G,] .G,.[G,G] | .G,,.[G,,G,] .G,.[G,G] | .G,,.[G,,G,] .G,.[G,G] | %67
 .G,,.[G,,G,] .G,.[G,G] | .G,,.[G,,G,] .G,.[G,G] | .G,,.[G,,G,] .G,.[G,G] | %70
 .G,,.[G,,G,] .G,.[G,G] | .G,,.[G,,G,] .G,.[G,G] | [G,,G,][I:staff -1](C/^B,/ C/^D/E/F/) | %73
 (3(A/G/F/)[I:staff +1][G,,G,][I:staff -1] (3(A/G/F/)[I:staff +1][G,,G,] | %74
 [G,,G,][I:staff -1]C/^D/ (E/D/E/F/) | %75
 (3(A/G/F/)[I:staff +1][G,,G,][I:staff -1] (3(A/G/F/)[I:staff +1][G,,G,] | %76
 [G,,G,][I:staff -1]C/^D/ (E/D/E/F/) |[I:staff +1] z [E,,E,] z [E,,E,] | z [E,,E,] z [E,,E,] | %79
 z [E,,E,] z [E,,E,] | !>![A,,C,][A,,A,] !>![E,A,][E,CE] | !>![A,,C,][A,,A,] !>![E,A,][E,CE] | %82
 !>![A,,C,][A,,A,] !>![E,A,][E,CE] | !>![A,,C,][A,,A,] !>![E,A,][E,CE] | %84
 !>![A,,C,][A,,A,] !>![E,A,][E,CE] | !>![A,,C,][A,,A,] !>![E,A,][E,CE] | %86
 !>![A,,C,][A,,A,] !>![E,A,][E,CE] | !>![A,,C,][A,,A,] !>![E,A,][E,CE] | %88
 !>![A,,C,][A,,A,] !>![E,A,][E,CE] | !>![A,,C,][A,,A,] !>![E,A,][E,CE] | %90
 !>![A,,C,][A,,A,] !>![E,A,][E,CE] | !>![A,,C,][A,,A,] !>![E,A,][E,CE] | %92
 !>![A,,C,][A,,A,] !>![E,A,][E,CE] | !>![A,,C,][A,,A,] !>![E,A,][E,CE] | %94
 !>![A,,C,][A,,A,] !>![E,A,][E,CE] | !>![A,,A,]A, !>![D,,D,] z | !>![C,,C,] z !>![B,,,B,,] z | %97
 !>!A,, z !>![D,,D,] z | !>![C,,C,] z !>![B,,,B,,] z | !>!A,, z [D,,D,] z | [D,,D,] z [D,,D,] z | %101
 [D,,D,] z [D,,D,] z | [D,,D,] z [D,,D,] z | [A,,A,][D,D] [A,,A,]2 | [A,,A,][D,D] [A,,A,]2 | %105
 [A,,A,]2 [A,,A,]2 | !///-!A,,2 A,2 | !///-!A,,2 A,2 |] %108
V:3
 e2 (c/B/A) B2 z2 | e2 (c/B/A) B2 z2 | z8 | z8 ||[K:C] z8 | z8 | z8 | z8 | z8 | z8 | z8 | z8 | %12
 [DF]4 [DG]4 | [CEG]2 z2!mp! .[CEc] z z2 | [DF]4 [DG]4 | [CEG]2 z2!mp! .[CEc] z z2 | z8 | z8 | z8 | %19
 z8 | z8 | z8 | z8 | z8 |!p! z/ E,/ [CE]3 z/ F,/ [DF]3 | z/ ^F,/ [^D^F]3 z/ ^G,/ [E^G]3 | %26
!p! z/ E,/ [CE]3 z/ F,/ [DF]3 | z/ ^F,/ [^D^F]3 z/!mp! ^G,/ [E^G]3 | %28
 [^FA]([E^G]/[FA]/ [GB])([FA]/[GB]/ [Ac])([GB]/[Ac]/ [Bd])[Ac]/[Bd]/ | %29
 [ce]([Bd]/[ce]/ [fa]).[fa] [ce]4 | %30
!mp! [^FA]([E^G]/[FA]/ [GB])([FA]/[GB]/ [Ac])([GB]/[Ac]/ [Bd])[Ac]/[Bd]/ | %31
 [ce]([Bd]/[ce]/ [fa]).[fa] [ce]4 | z8 | z2 z2 z4 | z8 | z8 ||[K:A][M:2/4] z4 | z4 | z4 | z4 | z4 | %41
 z4 | z4 | z4 | z4 | z4 | z4 | z4 | A,2!mf! (A2 | G2 E2-) | E2 (F2 | E2[K:bass] A,2-) | A,2 (A,2 | %53
 G,2 E,2-) | E,2 (E,2 | E2 E,2) |[K:treble] [DFA][DFA] z2 | z2 [CEA]2 | z2 [CEA]2 | z4 | %60
 [DFA][DFA] z2 | z2 [CEA]2 | z2 [CEA]2 | z4 | [ce] z z2 | %65
!p! ([^DF]/[CE]/[^B,D]/[CE]/) ([DF]/[CE]/[B,D]/[A,C]/) | [G,^B,] z2 z | %67
 ([EG]/[^DF]/[CE]/[DF]/) ([EG]/[DF]/[CE]/[B,D]/) | [CE] z2 z | %69
 ([^DF]/[CE]/[^B,D]/[CE]/) ([DF]/[CE]/[B,D]/[A,C]/) | [G,^B,] z2 z | %71
 ([EG]/[^DF]/[CE]/[DF]/) ([EG]/[DF]/[CE]/[B,D]/) | [CE] z z2 | z [CEGc] z [CEGc] | [CEGc] z z2 | %75
 z [CEGc] z [CEGc] | [CEGc] z z2 | z [G,B,DG] z [G,B,DG] | z [G,B,DG] z [G,B,DG] | %79
 z [G,B,DG] z [G,B,DG] | ([ce]/[Bd]/[Ac]/[Bd]/) ([ce]/[Bd]/[Ac]/[ce]/) | .[df] (!>![df]2 [eg]) | %82
 ([Bd]/[Ac]/[GB]/[Ac]/) ([Bd]/[Ac]/[GB]/[Bd]/) | .[ce] (!>![ce]2 [df]) | %84
 ([Ac]/[GB]/[FA]- [FA]/)([FA]/[GB]/[Ac]/) | .[Bd].[ce] !>![df]2 | %86
 ([GB]/[FA]/[EG]- [EG]/)([EG]/[FA]/[GB]/) | .[Ac].[Bd] !>![ce]2 | %88
 ([ce]/[Bd]/[Ac]/[Bd]/) ([ce]/[Bd]/[Ac]/[ce]/) | .[df] (!>![df]2 [eg]) | %90
 ([Bd]/[Ac]/[GB]/[Ac]/) ([Bd]/[Ac]/[GB]/[Bd]/) | .[ce] (!>![ce]2 [df]) | %92
 ([Ac]/[GB]/[FA]- [FA]/)([FA]/[GB]/[Ac]/) | .[Bd].[ce] !>![df]2 | %94
 ([GB]/[FA]/[EG]- [EG]/)([EG]/[FA]/[GB]/) | !>![A,A][Aa] !>![A,A] z | !>![G,G] z !>![F,F] z | %97
 !>![E,E] z !>![A,A] z | !>![G,G] z !>![F,F] z | !>![E,E] z [DFA] z | [DFA] z [DFA] z | %101
 [DFA] z [DFA] z | [DFA] z [DFA] z | [EAce][FAdf] [EAce]2 | [EAce][FAdf] [EAce]2 | %105
 [EAce]2 [EAce]2 | z4 | z4 |] %108
V:4
 E2 E2 E2 z2 | E2 E2 E2 z2 | x8 | x8 ||[K:C] x8 | x8 | x8 | x8 | x8 | x8 | x8 | x8 | x8 | x8 | x8 | %15
 x8 | x8 | x8 | x8 | x8 | x8 | x8 | x8 | x8 | x8 | x8 | x8 | x8 | x8 | x8 | x8 | x8 | x8 | x8 | %34
 x8 | x8 ||[K:A][M:2/4] x4 | x4 | x4 | x4 | x4 | x4 | x4 | x4 | x4 | x4 | x4 | x4 | x4 | x4 | x4 | %51
 x2[K:bass] x2 | x4 | x4 | x4 | x4 |[K:treble] x4 | x4 | x4 | x4 | x4 | x4 | x4 | x4 | x4 | x4 | %66
 x4 | x4 | x4 | x4 | x4 | x4 | x4 | x4 | x4 | x4 | x4 | x4 | x4 | x4 | x4 | x4 | x4 | x4 | x4 | %85
 x4 | x4 | x4 | x4 | x4 | x4 | x4 | x4 | x4 | x4 | x4 | x4 | x4 | x4 | x4 | x4 | x4 | x4 | x4 | %104
 x4 | x4 | x4 | x4 |] %108
V:5
 x8 | x8 | ee e2 ee e2 | x8 ||[K:C] x/ x7/2 x4 | x4 z z/ (e/ e'2) | x/ x7/2 x4 | x4 z z/ (e/ e'2) | %8
 x8 | x8 | x8 | x8 | B4 c4 | x8 | B4 c4 | x8 | F4 ^G4 | x8 | F4 ^G4 | x8 | x8 | x8 | x8 | x8 | %24
 x/ x7/2 x4 | x8 | x/ x7/2 x4 | x8 | x8 | x8 | x8 | x8 | e4 f4 | e4 f4 | e2 f2 e2 f2 | %35
 e2 f2 e2 f2 ||[K:A][M:2/4] x4 | x4 | x4 | x4 | x4 | x4 | x4 | x4 | x4 | x4 | x4 | x4 | x4 | x4 | %50
 x4 | x4 | x4 | x4 | x4 | x4 | x4 | x4 | x4 | x4 | x4 | x4 | x4 | x4 | x4 | x4 | x4 | x4 | x4 | %69
 x4 | x4 | x4 | x4 | x4 | x4 | x4 | x4 | x4 | x4 | x4 | x4 | x4 | x4 | x4 | x4 | x4 | x4 | x4 | %88
 x4 | x4 | x4 | x4 | x4 | x4 | x4 | x4 | x4 | x4 | x4 | x4 | x4 | x4 | x4 | x4 | x4 | x4 | x4 | %107
 x4 |] %108
V:6
 x8 | x8 | x8 | x8 ||[K:C] x/ x3/2- x6 | x8 | x/ x3/2- x6 | x8 | x4 z z/!8va(! e/ e'2!8va)! | %9
 x4 z z/!8va(! e/ e'2!8va)! | x4 z z/!8va(! e/ e'2!8va)! | x4 z z/!8va(! e/ e'2!8va)! | x8 | x8 | %14
 x8 | x8 | x8 | z2 [A,DF]2 (3(A,/^G,/^F,/E,- E,2) | x8 | z2 [A,DF]2 (3(A,/^G,/^F,/E,- E,2) | E,8 | %21
 E,8 | E,,8 | E,,8 | x8 | x8 | x8 | x8 | x8 | E,>E, D,2 x4 | z8 | E,>E, D,2 x4 | x8 | x8 | x8 | %35
 x8 ||[K:A][M:2/4] x4 | x4 | x4 | x4 | x4 | x4 | x4 | x4 | x4 | x4 | x4 | x4 | x4 | x4 | x4 | x4 | %52
 x4 | x4 | x4 | x4 | x4 | x4 | x4 | x4 | x4 | x4 | x4 | x4 | x4 | x4 | x4 | x4 | x4 | x4 | x4 | %71
 x4 | x4 | x4 | x4 | x4 | x4 | x4 | x4 | x4 | x4 | x4 | x4 | x4 | x4 | x4 | x4 | x4 | x4 | x4 | %90
 x4 | x4 | x4 | x4 | x4 | x4 | x4 | x4 | x4 | x4 | x4 | x4 | x4 | x4 | x4 | x4 | x4 | x4 |] %108

